packages/kaspersky-hexa-ui-icons/src/iconsSVGs/16x12/FlagVe.svg

<svg width="16" height="12" viewBox="0 0 16 12" fill="none" xmlns="http://www.w3.org/2000/svg">
<g clip-path="url(#clip0_41818_3998)">
<rect width="16" height="12" rx="2" fill="white"/>
<mask id="mask0_41818_3998" style="mask-type:luminance" maskUnits="userSpaceOnUse" x="0" y="0" width="16" height="12">
<rect width="16" height="12" rx="2" fill="white"/>
</mask>
<g mask="url(#mask0_41818_3998)">
<path fill-rule="evenodd" clip-rule="evenodd" d="M0 8H16V4H0V8Z" fill="#063191"/>
<path fill-rule="evenodd" clip-rule="evenodd" d="M0 12H16V8H0V12Z" fill="#E2213B"/>
<path d="M5.71423 6.40039C5.92457 6.40039 6.09499 6.57898 6.09509 6.7998C6.09509 7.02072 5.92463 7.2002 5.71423 7.2002C5.50388 7.20014 5.33337 7.02069 5.33337 6.7998C5.33347 6.57901 5.50394 6.40044 5.71423 6.40039ZM10.2855 6.40039C10.4959 6.40039 10.6663 6.57898 10.6664 6.7998C10.6664 7.02072 10.4959 7.2002 10.2855 7.2002C10.0752 7.20006 9.90466 7.02064 9.90466 6.7998C9.90476 6.57906 10.0753 6.40052 10.2855 6.40039ZM6.47595 5.2002C6.68622 5.2002 6.85661 5.37888 6.85681 5.59961C6.85681 5.82052 6.68635 6 6.47595 6C6.26569 5.99984 6.09509 5.82043 6.09509 5.59961C6.09529 5.37897 6.26581 5.20035 6.47595 5.2002ZM9.5238 5.2002C9.73407 5.2002 9.90446 5.37888 9.90466 5.59961C9.90466 5.82052 9.7342 6 9.5238 6C9.31343 5.99997 9.14294 5.82051 9.14294 5.59961C9.14315 5.37889 9.31356 5.20022 9.5238 5.2002ZM8.00037 4.7998C8.21061 4.79999 8.38123 4.9794 8.38123 5.2002C8.38113 5.42091 8.21055 5.59942 8.00037 5.59961C7.79003 5.59961 7.61961 5.42102 7.61951 5.2002C7.61951 4.97928 7.78997 4.7998 8.00037 4.7998Z" fill="white"/>
<path fill-rule="evenodd" clip-rule="evenodd" d="M0 4H16V0H0V4Z" fill="#FFD044"/>
</g>
</g>
<defs>
<clipPath id="clip0_41818_3998">
<rect width="16" height="12" fill="white"/>
</clipPath>
</defs>
</svg>

<svg xmlns="http://www.w3.org/2000/svg" width="16" height="12" fill="none" viewBox="0 0 16 12"><g clip-path="url(#a)"><rect width="16" height="12" fill="#fff" rx="2"/><mask id="b" width="16" height="12" x="0" y="0" maskUnits="userSpaceOnUse" style="mask-type:luminance"><rect width="16" height="12" fill="#fff" rx="2"/></mask><g mask="url(#b)"><path fill="#063191" fill-rule="evenodd" d="M0 8h16V4H0z" clip-rule="evenodd"/><path fill="#e2213b" fill-rule="evenodd" d="M0 12h16V8H0z" clip-rule="evenodd"/><path fill="#fff" d="M5.7142 6.4004c.2104 0 .3808.1786.3809.3994 0 .221-.1705.4004-.3809.4004-.2103 0-.3808-.1795-.3808-.4004s.1705-.3994.3808-.3994m4.5713 0c.2104 0 .3808.1786.3809.3994 0 .221-.1705.4004-.3809.4004-.2103-.0001-.3808-.1796-.3808-.4004s.1706-.3993.3808-.3994M6.4759 5.2002c.2103 0 .3807.1787.381.3994 0 .221-.1706.4004-.381.4004-.2102-.0002-.3808-.1796-.3808-.4004.0002-.2206.1707-.3992.3808-.3994m3.0479 0c.2103 0 .3807.1787.3809.3994 0 .221-.1705.4004-.3809.4004s-.3809-.1795-.3809-.4004c.0003-.2207.1707-.3994.3809-.3994m-1.5234-.4004c.2102.0002.3808.1796.3808.4004s-.1707.3992-.3808.3994c-.2104 0-.3808-.1786-.3809-.3994 0-.221.1705-.4004.3809-.4004"/><path fill="#ffd044" fill-rule="evenodd" d="M0 4h16V0H0z" clip-rule="evenodd"/></g></g><defs><clipPath id="a"><path fill="#fff" d="M0 0h16v12H0z"/></clipPath></defs></svg>
